X:1
T:The Snowy-Breasted Pearl
M:4/4
L:1/8
K:D
A-B c| d3/2 c/2 BA d3 B/2B/2| AF ED E2 FG| AA FD GF E3/2 D/2| D4- D|\
A-B c| dc BA d3 B| AF ED E2 FG| AA FD GF E3/2 D/2| D6 AG| FA Bd c3 A|\
 dc B3/2 A/2 A3 A| Bc df ed cB| A6 A-B/2-B/2| d3/2 c/2 BA d3 B| AF ED E2 FG|\
 AA FD GF E3/2 D/2| D4- D||

